22x22/apps/electron.svg

<svg xmlns="http://www.w3.org/2000/svg" width="22" height="22" version="1.1">
 <path style="opacity:0.2" d="m 11,1.5 a 10,10 0 0 0 -10,10 10,10 0 0 0 10,10 10,10 0 0 0 10,-10 10,10 0 0 0 -10,-10 z"/>
 <path style="fill:#494c60" d="M 11,1 A 10,10 0 0 0 1,11 10,10 0 0 0 11,21 10,10 0 0 0 21,11 10,10 0 0 0 11,1 Z"/>
 <path style="opacity:0.2" d="m 11.535156,3.4998365 a 1.5,1.5 0 0 0 -0.105468,0.00195 1.5,1.5 0 0 0 -1.228516,0.7480469 1.5,1.5 0 0 0 0.548828,2.0488281 1.5,1.5 0 0 0 1.220703,0.1230469 c 0.172375,0.1844117 0.341742,0.3796478 0.503906,0.5957031 C 11.166323,7.4402326 9.808913,8.0987341 8.625,8.9256177 7.7380712,9.545076 6.9987864,10.274718 6.4238281,11.050616 5.8294868,10.50159 5.3872801,9.943042 5.171875,9.439288 4.9544866,8.9308978 4.9392257,8.509216 5.1640625,8.0584303 5.4134382,7.5584452 5.7037313,7.3103391 6.0097656,7.1697584 6.3158,7.0291777 6.6574451,6.9995469 6.9941406,7.0349927 7.6675317,7.1058846 8.25,7.4334302 8.25,7.4334303 a 0.50050333,0.50050333 0 0 0 0.5,-0.8671876 c 0,0 -0.726165,-0.4278864 -1.6523438,-0.5253906 C 6.6345671,5.9921 6.1047364,6.02593 5.5917969,6.2615553 5.0788574,6.4971804 4.6045161,6.9395381 4.2695312,7.6111646 3.9100075,8.3319906 3.9498938,9.125462 4.2519531,9.831866 c 0.3020594,0.706406 0.8401326,1.357082 1.5078125,1.970703 0.035817,0.03292 0.080606,0.06299 0.1171875,0.0957 -0.3063509,0.539642 -0.5318825,1.089963 -0.6796875,1.632812 A 1.5,1.5 0 0 0 4,14.999835 a 1.5,1.5 0 0 0 1.5,1.5 1.5,1.5 0 0 0 1.5,-1.5 1.5,1.5 0 0 0 -0.7871094,-1.316406 c 0.114316,-0.367429 0.2670642,-0.745864 0.4707032,-1.126953 1.209513,0.916134 2.6557542,1.731598 4.0312502,2.375 0.928468,0.434299 1.865233,0.614266 2.763672,0.636718 -0.03815,0.118093 -0.06543,0.251687 -0.107422,0.363282 -0.259327,0.689184 -0.591648,1.243733 -0.949219,1.597656 -0.357571,0.353923 -0.711168,0.512591 -1.126953,0.496094 C 10.339749,17.987326 9.808902,17.487091 9.455078,16.95296 9.101255,16.418829 8.9902344,15.896319 8.9902344,15.896319 a 0.50104424,0.50104424 0 1 0 -0.9804688,0.207032 c 0,0 0.1437181,0.696441 0.6113282,1.402343 0.4676102,0.705903 1.3249892,1.467564 2.6347652,1.519532 0.716689,0.02844 1.368193,-0.287386 1.871094,-0.785157 0.502901,-0.49777 0.885061,-1.174036 1.179688,-1.957031 0.08928,-0.237278 0.153844,-0.501931 0.226562,-0.757812 0.684088,-0.08006 1.323966,-0.251065 1.90625,-0.46875 a 1.5,1.5 0 0 0 1.810547,0.242187 1.5,1.5 0 0 0 0.548828,-2.048828 1.5,1.5 0 0 0 -1.333984,-0.75 1.5,1.5 0 0 0 -0.714844,0.201172 1.5,1.5 0 0 0 -0.742188,1.441406 c -0.383647,0.135364 -0.794183,0.249828 -1.228515,0.324219 0.214142,-1.174771 0.288732,-2.449156 0.179687,-3.712891 -0.09896,-1.146932 -0.432128,-2.199539 -0.90039,-3.1191389 0.760367,-0.1466631 1.439607,-0.1694985 1.927734,-0.074219 0.488568,0.095366 0.746897,0.2739732 0.871094,0.5332031 0.338109,0.7057153 0.17803,1.2832428 -0.07813,1.7578108 -0.256151,0.47457 -0.595703,0.767579 -0.595703,0.767579 a 0.50010925,0.50010925 0 1 0 0.646484,0.761718 c 0,0 0.477777,-0.401978 0.830078,-1.054687 C 18.012453,9.673298 18.25296,8.6913708 17.759761,7.6619456 17.468314,7.0536018 16.85671,6.7104943 16.177734,6.5779615 15.498759,6.4454287 14.713369,6.4887467 13.867188,6.6521803 13.757065,6.6734493 13.63938,6.7146764 13.527344,6.7400709 13.292741,6.3943166 13.03413,6.0864719 12.767578,5.7986646 A 1.5,1.5 0 0 0 12.798828,5.7498365 1.5,1.5 0 0 0 12.25,3.7010084 1.5,1.5 0 0 0 11.535156,3.4998365 Z m 1.50586,4.3984375 c 0.473524,0.8551731 0.827953,1.852933 0.921875,2.941405 0.110001,1.274819 0.02066,2.58242 -0.216797,3.730468 -0.84755,0.01231 -1.737247,-0.137889 -2.607422,-0.544921 C 9.780119,13.38975 8.3528933,12.570787 7.2128906,11.697101 7.7228593,10.990522 8.385977,10.313923 9.199219,9.745929 10.370837,8.927633 11.758885,8.2838618 13.041016,7.898274 Z M 11,10.499835 c -0.549108,0 -1,0.450892 -1,1 0,0.549108 0.450892,1 1,1 0.549108,0 1,-0.450892 1,-1 0,-0.549108 -0.450892,-1 -1,-1 z"/>
 <path style="fill:#cff7ff" d="M 11.429688,3.0019531 A 1.5,1.5 0 0 0 10.201172,3.75 1.5,1.5 0 0 0 10.75,5.7988281 1.5,1.5 0 0 0 12.798828,5.25 1.5,1.5 0 0 0 12.25,3.2011719 1.5,1.5 0 0 0 11.429688,3.0019531 Z M 17.464844,12 A 1.5,1.5 0 0 0 16.75,12.201172 1.5,1.5 0 0 0 16.201172,14.25 1.5,1.5 0 0 0 18.25,14.798828 1.5,1.5 0 0 0 18.798828,12.75 1.5,1.5 0 0 0 17.464844,12 Z M 5.5,13 A 1.5,1.5 0 0 0 4,14.5 1.5,1.5 0 0 0 5.5,16 1.5,1.5 0 0 0 7,14.5 1.5,1.5 0 0 0 5.5,13 Z"/>
 <path style="opacity:0.1;fill:#f4f4f7" d="M 11,1 A 10,10 0 0 0 1.0705,9.926 10,9.5 0 0 1 11,1.5 10,9.5 0 0 1 20.961,10.2235 10,10 0 0 0 11,1 Z m 9.961,9.2235 A 10,10 0 0 1 21,11 10,9.5 0 0 0 20.961,10.2235 Z M 1.0705,9.926 A 10,9.5 0 0 0 1.0461,10.122 10,10 0 0 1 1.0705,9.926 Z M 1.0461,10.122 A 10,10 0 0 0 1.0002,11 10,9.5 0 0 1 1.0461,10.122 Z"/>
 <path style="fill:none;stroke:#cff7ff;stroke-width:1.00011849;stroke-linecap:round" d="m 16.507,10.5 c 0,0 1.632558,-1.386987 0.80125,-3.1221275 C 16.476943,5.642732 12.013972,6.668914 8.91216,8.835321 c -2.23302,1.559613 -3.450547,3.873224 -3.411306,5.6575"/>
 <path style="fill:none;stroke:#cff7ff;stroke-width:1.00011849;stroke-linecap:round" d="m 8.5,15.5 c 0,0 0.510392,2.435134 2.775342,2.525 2.264949,0.08987 3.510916,-3.959056 3.185658,-7.728507 C 14.226846,7.5828345 12.582006,5.37162 11.017157,4.513466"/>
 <path style="fill:none;stroke:#cff7ff;stroke-width:1.00011849;stroke-linecap:round" d="m 8.49975,6.5 c 0,0 -2.614779,-1.5084035 -3.7835,0.8348195 C 3.547529,9.678043 7.4998205,12.374956 10.92689,13.978 13.394065,15.132045 15.974393,14.426122 17.5,13.5"/>
 <path style="fill:#cff7ff" d="m 11,10 c -0.549108,0 -1,0.450892 -1,1 0,0.549108 0.450892,1 1,1 0.549108,0 1,-0.450892 1,-1 0,-0.549108 -0.450892,-1 -1,-1 z"/>
 <path style="fill:#494c60" d="M 11.5,4 A 0.5,0.5 0 0 0 11,4.5 0.5,0.5 0 0 0 11.5,5 0.5,0.5 0 0 0 12,4.5 0.5,0.5 0 0 0 11.5,4 Z m 6,9 A 0.5,0.5 0 0 0 17,13.5 0.5,0.5 0 0 0 17.5,14 0.5,0.5 0 0 0 18,13.5 0.5,0.5 0 0 0 17.5,13 Z m -12,1 A 0.5,0.5 0 0 0 5,14.5 0.5,0.5 0 0 0 5.5,15 0.5,0.5 0 0 0 6,14.5 0.5,0.5 0 0 0 5.5,14 Z"/>
</svg>

<svg xmlns="http://www.w3.org/2000/svg" width="22" height="22"><path style="opacity:.2" d="M11 1.5a10 10 0 0 0-10 10 10 10 0 0 0 10 10 10 10 0 0 0 10-10 10 10 0 0 0-10-10z"/><path style="fill:#494c60" d="M11 1A10 10 0 0 0 1 11a10 10 0 0 0 10 10 10 10 0 0 0 10-10A10 10 0 0 0 11 1z"/><path style="opacity:.2" d="M11.535 3.5a1.5 1.5 0 0 0-.105.002 1.5 1.5 0 0 0-1.229.748 1.5 1.5 0 0 0 .549 2.049 1.5 1.5 0 0 0 1.22.123c.173.184.342.38.505.595a14.824 14.824 0 0 0-3.85 1.909 9.532 9.532 0 0 0-2.201 2.125c-.595-.55-1.037-1.108-1.252-1.612-.218-.508-.233-.93-.008-1.38.25-.5.54-.749.846-.89.306-.14.647-.17.984-.134a3.68 3.68 0 0 1 1.256.398.5.5 0 0 0 .5-.867s-.726-.428-1.652-.525c-.463-.049-.993-.015-1.506.22-.513.236-.987.679-1.322 1.35-.36.721-.32 1.514-.018 2.22.302.707.84 1.358 1.508 1.972.036.032.08.063.117.095a7.088 7.088 0 0 0-.68 1.633A1.5 1.5 0 0 0 4 15a1.5 1.5 0 0 0 1.5 1.5A1.5 1.5 0 0 0 7 15a1.5 1.5 0 0 0-.787-1.317c.114-.367.267-.745.47-1.127 1.21.917 2.656 1.732 4.032 2.375a6.862 6.862 0 0 0 2.764.637c-.039.118-.066.252-.108.363-.26.69-.592 1.244-.95 1.598-.357.354-.71.513-1.126.496-.955-.038-1.486-.538-1.84-1.072a3.425 3.425 0 0 1-.465-1.057.501.501 0 1 0-.98.207s.143.697.611 1.403c.468.706 1.325 1.467 2.635 1.52.717.028 1.368-.288 1.871-.786.503-.498.885-1.174 1.18-1.957.089-.237.153-.502.226-.758a8.157 8.157 0 0 0 1.906-.469 1.5 1.5 0 0 0 1.811.243 1.5 1.5 0 0 0 .549-2.05 1.5 1.5 0 0 0-1.334-.75 1.5 1.5 0 0 0-.715.202 1.5 1.5 0 0 0-.742 1.441c-.384.136-.794.25-1.229.325.214-1.175.289-2.45.18-3.713a8.48 8.48 0 0 0-.9-3.12c.76-.146 1.44-.169 1.927-.074.489.096.747.274.871.534.339.705.178 1.283-.078 1.757-.256.475-.595.768-.595.768a.5.5 0 1 0 .646.762s.478-.402.83-1.055c.352-.653.593-1.635.1-2.664-.292-.608-.903-.952-1.582-1.084-.68-.133-1.465-.09-2.31.074-.11.021-.229.063-.34.088a7.973 7.973 0 0 0-.76-.941 1.5 1.5 0 0 0 .03-.05 1.5 1.5 0 0 0-.548-2.048 1.5 1.5 0 0 0-.715-.201zm1.506 4.398c.474.855.828 1.853.922 2.942a13.2 13.2 0 0 1-.217 3.73 5.899 5.899 0 0 1-2.607-.545c-1.359-.635-2.786-1.454-3.926-2.328a8.349 8.349 0 0 1 1.986-1.951 13.914 13.914 0 0 1 3.842-1.848zM11 10.5c-.55 0-1 .45-1 1 0 .549.45 1 1 1s1-.451 1-1c0-.55-.45-1-1-1z"/><path style="fill:#cff7ff" d="M11.43 3.002a1.5 1.5 0 0 0-1.229.748 1.5 1.5 0 0 0 .549 2.049 1.5 1.5 0 0 0 2.049-.549 1.5 1.5 0 0 0-.549-2.049 1.5 1.5 0 0 0-.82-.199zM17.465 12a1.5 1.5 0 0 0-.715.201 1.5 1.5 0 0 0-.549 2.049 1.5 1.5 0 0 0 2.049.549 1.5 1.5 0 0 0 .549-2.049 1.5 1.5 0 0 0-1.334-.75zM5.5 13A1.5 1.5 0 0 0 4 14.5 1.5 1.5 0 0 0 5.5 16 1.5 1.5 0 0 0 7 14.5 1.5 1.5 0 0 0 5.5 13z"/><path style="opacity:.1;fill:#f4f4f7" d="M11 1a10 10 0 0 0-9.93 8.926A10 9.5 0 0 1 11 1.5a10 9.5 0 0 1 9.961 8.723A10 10 0 0 0 11 1zm9.961 9.223A10 10 0 0 1 21 11a10 9.5 0 0 0-.039-.777zm-19.89-.297a10 9.5 0 0 0-.025.196 10 10 0 0 1 .024-.196zm-.025.196A10 10 0 0 0 1 11a10 9.5 0 0 1 .046-.878z"/><path style="fill:none;stroke:#cff7ff;stroke-width:1.00011849;stroke-linecap:round" d="M16.507 10.5s1.633-1.387.801-3.122c-.831-1.735-5.294-.71-8.396 1.457-2.233 1.56-3.45 3.874-3.411 5.658"/><path style="fill:none;stroke:#cff7ff;stroke-width:1.00011849;stroke-linecap:round" d="M8.5 15.5s.51 2.435 2.775 2.525c2.265.09 3.511-3.96 3.186-7.729-.234-2.713-1.879-4.924-3.444-5.783"/><path style="fill:none;stroke:#cff7ff;stroke-width:1.00011849;stroke-linecap:round" d="M8.5 6.5s-2.615-1.508-3.784.835c-1.168 2.343 2.784 5.04 6.21 6.643 2.468 1.154 5.048.448 6.574-.478"/><path style="fill:#cff7ff" d="M11 10c-.55 0-1 .45-1 1s.45 1 1 1 1-.45 1-1-.45-1-1-1z"/><path style="fill:#494c60" d="M11.5 4a.5.5 0 0 0-.5.5.5.5 0 0 0 .5.5.5.5 0 0 0 .5-.5.5.5 0 0 0-.5-.5zm6 9a.5.5 0 0 0-.5.5.5.5 0 0 0 .5.5.5.5 0 0 0 .5-.5.5.5 0 0 0-.5-.5zm-12 1a.5.5 0 0 0-.5.5.5.5 0 0 0 .5.5.5.5 0 0 0 .5-.5.5.5 0 0 0-.5-.5z"/></svg>
